X: 10041
T: FIGHT ABOUT THE FIRE SIDE.     a Reel.
%R: reel
B: "Edinburgh Repository of Music" v.1 p.4 #1
F: http://digital.nls.uk/special-collections-of-printed-music/pageturner.cfm?id=87776133
Z: 2015 John Chambers <jc:trillian.mit.edu>
M: C|
L: 1/8
K: C
c !segno!|\
GcEc D(dd.c) | GcEc GcEc |\
FcEc D(dd.B) | cGAF ECC :|\
|: f |\
e<cg>c eddf | ecgc acgc |
f>age (Td>cd)e | GAcd {f}e2df |\
e<cg>c eddf | ecgc acgc |\
fage Td>cde | GAcd {cd}e2dc !segno! |]

%%sep 2 1 500
%%sep 1 1 500

